X:959
%%annotationfont Times-Roman 14
T:Crookit Bawbee, The
C:Joe Buchanan's Scottish Tome - Page 559.1
I:559 1
Z:Carl Allison
R:Waltz
L:1/4
M:3/4
K:D
D/ | "D7"D F A | "G"d c B | "A7"A E G | "A7"G F A | "D7"D2 F/A/ | "G"G B d | "A7"F G E | "D"D2 D |
"D"F>E D | "D7"D E F | "G"G2 A/B/ | \
"@15,42|"\
"@16,52_____________________________________________________"\
"@20,38Intro"\
"@386,42|"\
"D7"A F A | "G"d>G B | "D"A D E | "A7"F G E | "D"D2 "A7"D/E/ |
"D"F2 E/F/ | "A7"G>F G | c B "F#m"A | "D"A F D | "Bm"D2 C/D/ | "Bm"D C D | "E7"F E D | "A7"E2 D/E/ |
"D"F2 E/F/ | "A7"G>F G | c B "F#m"A | "G"B, D D | "D"A, D D | "A7"D E C | "D"D2 D |]
D/ | "D7"D F A | "G"d c B | "A7"A E G | "A7"G F A | "D7"D2 F/A/ | "G"G B d | "A7"F G E | "D"D2 D |
"D"F>E D | "D7"D E F | "G"G2 A/B/ | "D7"A F A | "G"d>G B | "D"A D E | "A7"F G E | "D"D2 d/e/ |
"D"f2 e/f/ | "G"g>f g | "A7"c' b a | "A7"a f d | "D7"d c/d/ | "G"d c d | "A7"f e d | "A7"e2 de |
"D"f2 e/f/ | "G"g>f g | "A7"c' b a | "D"a f d | "Bm"B d d | "A7"A d d | "G"d e c | "D"d2 |]
%
W:Added missing chords for last two lines.

